X:1
T:C Major Daniel Read, 1785 (Revised 1804)
T:Isaac Watts, 1719 (Psalm 50) 10.10 10.10 10.10
T:Judgment
T:No copyright. Transcribed from The Columbian Harmonist, 1807.
%%score [ 1 2 3 4 ]
L:1/8
M:4/4
K:C
V:1 treble nm="Treble" snm="Tr."
V:2 treble nm="Counter" snm="C."
V:3 treble-8 nm="Tenor" snm="T."
V:4 bass nm="Bass" snm="B."
V:1
 c8 | G6 G2 | A4 B4 | c4 (c2 e2) | (e2 c4) c2 | B8 | z4 (c2 e2) | d2 c2 B4- | B2 B2 c2 c2 | c4 B4 | %10
 c8 | z4 c4 | c2 c2 B2 B2 | (B3 c d2) e2 | d4 d4 | d8- | d4 c4 | e>f e>d c4 | c4 c2 c2 | c4 d4 | %20
 e8 | z4 e4 | e2 e2 e2 e2 | d6 B2 | c4 c4 | B8 | z4 c4 | e>f e>d e4 | c4 c2 c2 | d6 d2 | e8 |] %31
V:2
 C8 | E6 E2 | F4 G4 | G4 G4 | (E3 F G2) G2 | G8 | z4 G4 | ^F2 F2 [E-G]4 | [EG]2 [DG]2 [EG]2 E2 | %9
w: 2.~Be-|hold, the|Judge de-|scends, His|guards * * are|nigh;|Tem-|pest and *|* at- tend Him|
 A4 G4 | [EG]8 | z4 G4 | G2 G2 G2 G2 | G6 E2 | F4 F4 | G8 | z4 G4 | G2 (GF) E4 | E4 A2 A2 | G4 G4 | %20
w: down the|sky.|Heaven,|earth and hell draw|near, Let|all things|come|To|hear His * jus-|tice, and the|sin- ner's|
 G8 | z4 G4 | G2 G2 E2 E2 | F6 EF | G4 G4 | G8 | z4 G4 | A2 c2 B2 G2 | A4 A2 A2 | G6 G2 | G8 |] %31
w: doom.|"But|gath- er first My|saints," the *|Judge com-|mands,|"Bring|them, ye an- *|gels. from their|dis- tant|lands."|
V:3
 G8 | c6 B2 | c4 (G2 F2) | E4 G4 | (c3 d e2) c2 | d8 | z4 (e2 dc) | B2 A2 G4- | G2 G2 c2 e2 | %9
 (f2 e2) d4 | c8 | z4 c4 | c2 e2 d2 d2 | d6 ec | B4 A4 | G8 | z4 G4 | c>d e>f g4 | e4 f2 f2 | %19
 e4 d4 | c8 | z4 c4 | c2 c2 c2 (cB) | A6 G2 | c4 e4 | d8 | z4 e4 | e>d e>f g4 | f4 e2 e2 | d6 d2 | %30
 c8 |] %31
V:4
 C,8 | C,6 C,2 | F,4 (E,2 D,2) | C,4 C,4 | C,6 C,2 | G,8- | G,4 C,4 | D,2 D,2 E,4- | %8
 E,2 G,2 E,2 C,2 | F,4 G,4 | C,8- | C,4 C,4 | C,2 C,2 G,2 G,2 | G,6 C,2 | D,4 D,4 | G,,8- | %16
 G,,4 C,4 | C2 C2 C4 | C,4 F,2 F,2 | G,4 G,4 | C,8- | C,4 C,4 | C,2 C,2 C,2 A,,2 | D,6 E,D, | %24
 C,4 C4 | G,8- | G,4 C4 | C2 A,2 G,2 E,2 | F,4 A,2 C2 | G,6 G,2 | C,8 |] %31

